X: 16
T:Alunelul de la Urzica
O:Romania
F: http://www.youtube.com/watch?v=8dVgiHOEX1M
F: http://www.youtube.com/watch?v=-gUMU_7ZdzE
M:4/4
L:1/8
Q:1/4=180
K:ADor
%%MIDI gchord ghii  
%%MIDI program 25
%%MIDI chordprog 45
%%MIDI chordvol 60
"Am"z8|z8|z8|z8|
|:cBcA cBcA    |cBcA e/f/e/f/e/f/e/f/|e2 e2 c2 c2  | e2 e2 A4    :|
%%MIDI gchord ghi2  
|:ga _bg af ge |fc e2 c4             |e2 e2 e2 c2  | e2 e2 A4    :|



